X: 41110
T: Trip To Sligo, The
R: jig
M: 6/8
K: Eminor
E2e BGE|D2d AFD|E2e BGE|BAG e2f|
gfe d^cB|ABG FED|EFG ABc|BGF E3:|
e|eBe gfe|dAd fed|eBe gfe|faf gfe|
faf gfe|d^cB AFD|EFG ABc|BGF E3:|

